!!!COM:	Bach, Johann Sebastian
!!!CDT:	1685/02/21/-1750/07/28/
!!!OTL@@DE:	O Jesu, du mein Br&auml;utigam
!!!SCT:	BWV 335
!!!PC#:	236
!!!AGN:	chorale
**kern	**kern	**kern	**kern	**chordsymbol
*ICvox	*ICvox	*ICvox	*ICvox	*
*Ibass	*Itenor	*Ialto	*Isoprn	*
*I"Bass	*I"Tenor	*I"Alto	*I"Soprano	*
*clefF4	*clefGv2	*clefG2	*clefG2	*
*k[f#]	*k[f#]	*k[f#]	*k[f#]	*
*e:	*e:	*e:	*e:	*e:
*M4/4	*M4/4	*M4/4	*M4/4	*M4/4
*met(c)	*met(c)	*met(c)	*met(c)	*met(c)
*MM100	*MM100	*MM100	*MM100	*MM100
4BB	4F#	4d#	4b	BM
=1	=1	=1	=1	=1
4E	4G	4e	4b	Em
4c	8AL	4e	4a	Amm
.	8GJ	.	.	Amm
4D#	4F#	4f#	4b	BM
4E	4B	4e	4g	Em
=2	=2	=2	=2	=2
4AA	4c	4e	8f#L	F#dm
.	.	.	16gL	F#dm
.	.	.	16aJJ	F#dm
4BB	8BL	4d#	4f#	BMm
.	8AJ	.	.	BMm
4EE;	4G;	4B;	4e;	Em
4EE	8GL	4B	8eL	Em
.	8AJ	.	8f#J	Em
=3	=3	=3	=3	=3
4E	4B	4e	4g	Em
4F#	4A	4dnX	4a	DM
4G	4G	4d	4b	GM
8DL	4F#	8dL	4a	DMM
8C#J	.	8eJ	.	DMM
=4	=4	=4	=4	=4
4BB	4.B	4f#	4dd	Bm
4F#	.	8.f#L	4cc#	F#Mm
.	8A#	.	.	F#Mm
.	.	16eJk	.	F#Mm
4BB;	4F#;	4d#;	4b;	BM
8EL	4G	4e	4b	Emm
8DJ	.	.	.	Emm
=5	=5	=5	=5	=5
4C#	4A	4e	4ee	AM
4D	8AL	4d	4ff#	DM
.	8BJ	.	.	Bm
4A	4c#X	4e	4ee	AM
4G#	4d	4e#	4b	E#dd
=6	=6	=6	=6	=6
8AL	4c#	4.f#	4cc#	F#m
8BJ	.	.	.	F#m
4c#	8G#L	.	4b	C#Mm
.	8c#J	8e#	.	C#Mm
4F#;	4c#;	4f#;	4a;	F#m
4D	4d	8f#L	8aL	DM
.	.	8g#J	8bJ	G#d
=7	=7	=7	=7	=7
4A	4enX	4a	4cc#	AM
8G#L	4f#	4a	4dd#	D#d
8F#J	.	.	.	D#d
8G#L	8eL	8b	4ee	EM
8A#J	8c#J	4cc#	.	A#d
4B	8dL	.	4dd	Bm
.	8f#J	8b	.	Bm
=8	=8	=8	=8	=8
4E	8gnXL	8bL	8cc#L	C#dm
.	8c#J	16a#L	16ddL	C#m
.	.	16g#JJ	16eeJJ	C#m
4F#	8f#L	4a#	4cc#	F#Mm
.	8eJ	.	.	F#Mm
4BB;	4d#;	4f#;	4b;	BM
==	==	==	==	==
*-	*-	*-	*-	*-
!!!hum2abc: -Q ''
!!!title: @{PC#}. @{OTL@@DE}
!!!YOR1: 371 vierstimmige Choralges&auml;nge von Johann Sebastian Bach, 
!!!YOR2: 4th ed. by Alfred D&ouml;rffel (Leipzig: Breitkopf und H&auml;rtel, 
!!!YOR2: c.1875). 178 pp. Plate "V.A.10".  reprint: J.S. Bach, 371 Four-Part 
!!!YOR4: Chorales (New York: Associated Music Publishers, Inc., c.1940).
!!!SMS: B&H, 4th ed, Alfred D&ouml;rffel, c.1875, plate V.A.10
!!!EED:  Craig Stuart Sapp
!!!EEV:  2009/05/22
!!! **chordsymbol annotations generated by the FlexibleChoraleHarmonicAnalysis package.
!!! Condit-Schultz, Ju, and Fujinaga, ISMIR (2018)
!!! Created on Sat Mar 02 11:23:33 2019
